X: 24883
T: Magnolia Place
R: reel
M: 4/4
K: Amajor
|:c2 BA BcBA|AABc efcB|A2 AF ABF(A|A)BBA G3B|
BAAB ceAe|eAdc Aedc|F2 AF ABF(E|E)CDE A,B,CE:|
|:B,4 A,B,(C2|C)A,B,C EF A2|BBAG E2 BB|AABA G3 B|
BAAB ceAe|eAdc Aedc|F2 AF ABF(E|E)CDE A,B,CE|
edc(A A)edc|AA,B,C EFAG|D2 BA G(DD)B|BABA G3B
BAAB ceAe|eAdc Aedc|F2 AF ABF(E|E)CDE A,B,CE:|

